azure-patterns/svg-twitter-alt.svg

<svg xmlns="http://www.w3.org/2000/svg" viewBox="0 0 54 43">
                                
                            
    <path opacity="0.25" d="M16.9819 43C37.3594 43 48.505 26.4552 48.505 12.1076C48.505 11.6377 48.505 11.1699 48.4726 10.7042C50.6408 9.1672 52.5125 7.26414 54 5.0841C51.978 5.96215 49.833 6.53797 47.6366 6.79235C49.9495 5.43545 51.6804 3.30128 52.5074 0.787022C50.3327 2.05171 47.9534 2.943 45.4723 3.42242C43.8019 1.68176 41.5927 0.52913 39.1864 0.142911C36.7802 -0.243307 34.3112 0.158413 32.1614 1.28591C30.0117 2.4134 28.301 4.20381 27.2942 6.38008C26.2873 8.55634 26.0405 10.9971 26.5918 13.3248C22.187 13.1084 17.8779 11.9866 13.9442 10.0323C10.0105 8.07798 6.54013 5.33482 3.7584 1.98089C2.34164 4.37109 1.90771 7.2006 2.54497 9.89331C3.18224 12.586 4.84277 14.9395 7.18848 16.4745C5.42536 16.4233 3.70068 15.9572 2.16 15.1156C2.16 15.16 2.16 15.2066 2.16 15.2531C2.1607 17.7599 3.04616 20.1892 4.66621 22.1291C6.28625 24.069 8.54114 25.4 11.0484 25.8964C9.41732 26.3323 7.70597 26.396 6.04584 26.0826C6.7538 28.24 8.13211 30.1266 9.98799 31.4785C11.8439 32.8304 14.0845 33.5801 16.3966 33.6226C12.4734 36.6442 7.62709 38.2845 2.63736 38.2796C1.75587 38.2779 0.875241 38.2256 0 38.1229C5.06657 41.3093 10.9618 42.9994 16.9819 42.9915" fill="black"></path>
</svg>

<svg xmlns="http://www.w3.org/2000/svg" viewBox="0 0 54 43"><path opacity=".25" d="M16.982 43c20.377 0 31.523-16.545 31.523-30.892 0-.47 0-.938-.032-1.404A22.3 22.3 0 0 0 54 5.084a22.467 22.467 0 0 1-6.363 1.708 10.936 10.936 0 0 0 4.87-6.005 22.478 22.478 0 0 1-7.035 2.635 11.16 11.16 0 0 0-6.286-3.28 11.287 11.287 0 0 0-7.025 1.144 10.96 10.96 0 0 0-4.867 5.094 10.668 10.668 0 0 0-.702 6.945 31.958 31.958 0 0 1-12.648-3.293A31.344 31.344 0 0 1 3.758 1.981a10.677 10.677 0 0 0-1.213 7.912 10.867 10.867 0 0 0 4.643 6.581 11.17 11.17 0 0 1-5.028-1.358v.137c0 2.507.886 4.936 2.506 6.876a11.125 11.125 0 0 0 6.382 3.767 11.28 11.28 0 0 1-5.002.187 10.88 10.88 0 0 0 3.942 5.396 11.24 11.24 0 0 0 6.409 2.144 22.522 22.522 0 0 1-13.76 4.657A23.012 23.012 0 0 1 0 38.123a31.833 31.833 0 0 0 16.982 4.869"/></svg>
